X: 29578
T: Noon Lassies, The
R: reel
M: 4/4
K: Gmajor
G2BG AGBG|G2BG GEDE|G2BG AGAB|BAGE EDDE|
GBDG BDGB|G2BG GEDE|G2BG AGAB|BAGE EDD2||
dedB AGAB|dedB BAAB|dedB AGAB|BAGE EDD2|
BddB AGAB|BddB BAA2|BddB AGAB|BAGE EDD2||
DGBG AGBG|DGBG AGBd|g3e dedB|BAGE EDD2|
dgbg agbg|dgbg agef|g3e dedB|BAGE EDDg||
edBg edBg|edBA GEEg|edBg edBA|GAGE EDDg|
edBg edBg|edBA GEE2|ed (3Bcd efg2|GAGE EDEF||

